dist/images/npm.svg

<svg width="30" height="12.34" viewBox="0 0 124 51" fill="none" xmlns="http://www.w3.org/2000/svg"><path d="M0 0h124v43.71H62V51H34.44v-7.29H0V0zm6.89 36.43h13.78V14.57h6.89v21.86h6.89V7.29H6.89v29.14zM41.33 7.29v36.42h13.78v-7.28h13.78V7.29H41.33zm13.78 7.29H62v14.56h-6.89V14.58zm20.67-7.29v29.14h13.78V14.57h6.89v21.86h6.89V14.57h6.89v21.86h6.89V7.29H75.78z" fill="#CB3837"/></svg>

<svg width="30" height="12.34" viewBox="0 0 124 51" fill="none" xmlns="http://www.w3.org/2000/svg">
<path d="M0 0H124V43.71H62V51H34.44V43.71H0V0ZM6.89 36.43H20.67V14.57H27.56V36.43H34.45V7.29H6.89V36.43ZM41.33 7.29V43.71H55.11V36.43H68.89V7.29H41.33ZM55.11 14.58H62V29.14H55.11V14.58ZM75.78 7.29V36.43H89.56V14.57H96.45V36.43H103.34V14.57H110.23V36.43H117.12V7.29H75.78Z" fill="#CB3837"/>
</svg>
